Origami/16x16/apps/rider.svg

<svg xmlns="http://www.w3.org/2000/svg" width="16" height="16" version="1">
 <path style="fill:#cf4f8c" d="M 8,0 H 0.8 C 0.3568,0 0,0.3568 0,0.8 V 8 H 8 Z"/>
 <path style="fill:#6655e4" d="M 8,0 H 15.2 C 15.643,0 16,0.3568 16,0.8 V 8 H 8 Z"/>
 <path style="fill:#ff8c2a" d="M 8,16 H 0.8 C 0.3568,16 0,15.643 0,15.2 V 8 H 8 Z"/>
 <path style="fill:#cf4f8c" d="M 8,16 H 15.2 C 15.643,16 16,15.643 16,15.2 V 8 H 8 Z"/>
 <rect style="fill:#3f3f3f" width="12" height="12" x="2" y="2"/>
 <path style="fill:none;stroke:#ffffff;stroke-linecap:round" d="M 3.5,11.5 H 7.5"/>
 <path style="fill:none;stroke:#ffffff;stroke-linecap:round" d="M 7.5,7.5 C 7.5,7.5 9.5219,7.6751 9.5,5.5 9.4781,3.3249 7.5,3.5 7.5,3.5 M 7.5,7.5 V 3.5"/>
 <path style="fill:none;stroke:#ffffff;stroke-linecap:round" d="M 5.5,7.5 4.5,6 M 3.5,5.5 C 3.5,5.5 5.5,5.7327 5.5,4.5 5.5,3.2682 3.5,3.5 3.5,3.5 M 3.5,7.5 V 3.5"/>
</svg>

<svg width="16" height="16" version="1" xmlns="http://www.w3.org/2000/svg">
 <path d="m8 0h-7.2c-0.4432 0-0.8 0.3568-0.8 0.8v7.2h8z" style="fill:#cf4f8c"/>
 <path d="m8 0h7.2c0.443 0 0.8 0.3568 0.8 0.8v7.2h-8z" style="fill:#6655e4"/>
 <path d="m8 16h-7.2c-0.4432 0-0.8-0.357-0.8-0.8v-7.2h8z" style="fill:#ff8c2a"/>
 <path d="m8 16h7.2c0.443 0 0.8-0.357 0.8-0.8v-7.2h-8z" style="fill:#cf4f8c"/>
 <rect x="2" y="2" width="12" height="12" style="fill:#3f3f3f"/>
 <path d="m3.5 11.5h4" style="fill:none;stroke-linecap:round;stroke:#ffffff"/>
 <path d="m7.5 7.5s2.0219 0.1751 2-2-2-2-2-2m0 4v-4" style="fill:none;stroke-linecap:round;stroke:#ffffff"/>
 <path d="m5.5 7.5-1-1.5m-1-0.5s2 0.2327 2-1c0-1.2318-2-1-2-1m0 4v-4" style="fill:none;stroke-linecap:round;stroke:#ffffff"/>
</svg>
